Papirus/64x64/apps/io.github.realmazharhussain.GdmSettings.svg

<?xml version="1.0" encoding="UTF-8" standalone="no"?>
<svg
   id="_图层_1"
   version="1.1"
   viewBox="0 0 64 64" width="64" height="64"
   sodipodi:docname="io.github.realmazharhussain.GdmSettings.svg"
   xml:space="preserve"
   inkscape:version="1.4 (e7c3feb100, 2024-10-09)"
   xmlns:inkscape="http://www.inkscape.org/namespaces/inkscape"
   xmlns:sodipodi="http://sodipodi.sourceforge.net/DTD/sodipodi-0.dtd"
   xmlns:xlink="http://www.w3.org/1999/xlink"
   xmlns="http://www.w3.org/2000/svg"
   xmlns:svg="http://www.w3.org/2000/svg"><sodipodi:namedview
     id="namedview26"
     pagecolor="#505050"
     bordercolor="#eeeeee"
     borderopacity="1"
     inkscape:showpageshadow="0"
     inkscape:pageopacity="0"
     inkscape:pagecheckerboard="0"
     inkscape:deskcolor="#505050"
     inkscape:zoom="7.5572037"
     inkscape:cx="32.15475"
     inkscape:cy="32.15475"
     inkscape:window-width="1920"
     inkscape:window-height="939"
     inkscape:window-x="0"
     inkscape:window-y="34"
     inkscape:window-maximized="1"
     inkscape:current-layer="_图层_1" /><!-- Generator: Adobe Illustrator 29.0.1, SVG Export Plug-In . SVG Version: 2.1.0 Build 192)  --><defs
     id="defs6"><style
       id="style1">
      .st0 {
        fill-opacity: .5;
      }

      .st0, .st1, .st2, .st3, .st4, .st5, .st6, .st7 {
        fill: #fff;
      }

      .st8 {
        fill: #133c9a;
      }

      .st2, .st9 {
        display: none;
      }

      .st3 {
        fill-opacity: .2;
      }

      .st4 {
        fill-opacity: .9;
      }

      .st10 {
        fill: #3370ff;
      }

      .st11 {
        fill: url(#_未命名的渐变_3);
      }

      .st12 {
        fill: url(#_未命名的渐变);
      }

      .st5 {
        fill-opacity: .3;
      }

      .st6 {
        fill-opacity: 0;
      }

      .st7 {
        fill-opacity: .7;
      }

      .st13 {
        fill: #00d6b9;
      }

      .st14 {
        fill: url(#_未命名的渐变_2);
      }
    </style><radialGradient
       id="_未命名的渐变"
       data-name="未命名的渐变"
       cx="123.9"
       cy="-40.2"
       fx="123.9"
       fy="-40.2"
       r="59.4"
       gradientTransform="translate(-26.8 25.5) scale(.6 -.7)"
       gradientUnits="userSpaceOnUse"><stop
         offset="0"
         stop-color="#db202e"
         id="stop1" /><stop
         offset="1"
         stop-color="#e01b24"
         id="stop2" /></radialGradient><radialGradient
       id="_未命名的渐变_2"
       data-name="未命名的渐变 2"
       cx="67.6"
       cy="26.8"
       fx="67.6"
       fy="26.8"
       r="105.2"
       gradientTransform="translate(-26.6 25.3) scale(.6 -.7)"
       gradientUnits="userSpaceOnUse"><stop
         offset="0"
         stop-color="#ffb648"
         id="stop3" /><stop
         offset="1"
         stop-color="#ff7800"
         stop-opacity="0"
         id="stop4" /></radialGradient><radialGradient
       id="_未命名的渐变_3"
       data-name="未命名的渐变 3"
       cx="61.7"
       cy="18.6"
       fx="61.7"
       fy="18.6"
       r="68"
       gradientTransform="translate(-26.8 25.8) scale(.6 -.7)"
       gradientUnits="userSpaceOnUse"><stop
         offset="0"
         stop-color="#c64600"
         id="stop5" /><stop
         offset="1"
         stop-color="#a51d2d"
         id="stop6" /></radialGradient><linearGradient
       id="a"><stop
         offset="0"
         stop-color="#fff"
         id="stop1-3" /><stop
         offset="1"
         stop-color="#fff"
         stop-opacity="0"
         id="stop2-6" /></linearGradient><linearGradient
       gradientTransform="rotate(-90,110.91,115.434)"
       gradientUnits="userSpaceOnUse"
       xlink:href="#a"
       id="b"
       y2="24.145"
       x2="108.974"
       y1="16.246"
       x1="108.118" /><linearGradient
       gradientTransform="rotate(90,135.136,85.779)"
       gradientUnits="userSpaceOnUse"
       xlink:href="#a"
       id="c"
       y2="24.145"
       x2="108.974"
       y1="16.246"
       x1="108.118" /><linearGradient
       gradientUnits="userSpaceOnUse"
       xlink:href="#a"
       id="d"
       y2="24.145"
       x2="108.974"
       y1="16.246"
       x1="108.118" /><linearGradient
       gradientTransform="rotate(180,108.012,88.805)"
       gradientUnits="userSpaceOnUse"
       xlink:href="#a"
       id="e"
       y2="24.145"
       x2="108.974"
       y1="16.246"
       x1="108.118" /></defs><path
     class="st1"
     d="M47.5,64.1H13.8c-7.6,0-13.8-6.3-13.8-13.8V13.7C0,6.2,6.2,0,13.7,0h36.6c7.5,0,13.7,6.2,13.7,13.7v36.6c0,7.5-6.2,13.7-13.7,13.7h-2.9.1Z"
     id="path6"
     style="fill:#5e5c64;fill-opacity:1" /><g
     id="g31"
     transform="matrix(1.0971335,0,0,1.0742872,-7.4226023,-4.6659362)"><circle
       style="opacity:0.1"
       cx="32"
       cy="23"
       r="12"
       id="circle2" /><circle
       style="fill:#c0bfbc"
       cx="32"
       cy="22"
       r="12"
       id="circle3" /><circle
       style="opacity:0.2"
       cx="32"
       cy="19"
       r="4"
       id="circle4" /><circle
       style="fill:#3f6d83"
       cx="32"
       cy="18"
       r="4"
       id="circle5" /><rect
       style="opacity:0.1"
       width="28"
       height="6"
       x="18"
       y="41"
       rx="1.6"
       ry="1.6"
       id="rect5" /><rect
       style="fill:#c0bfbc"
       width="28"
       height="6"
       x="18"
       y="40"
       rx="1.6"
       ry="1.6"
       id="rect6" /><path
       style="opacity:0.2"
       d="M 19.6,40 C 18.713,40 18,40.713 18,41.6 v 1 C 18,41.713 18.713,41 19.6,41 h 24.8 c 0.887,0 1.6,0.713 1.6,1.6 v -1 C 46,40.713 45.287,40 44.4,40 Z"
       id="path7" /><path
       style="opacity:0.2"
       d="m 30,25 c -2.986,0 -5.448,2.159 -5.918,5.008 A 12,12 0 0 0 32,33 12,12 0 0 0 39.918,30.008 C 39.448,27.159 36.986,25 34,25 Z"
       id="path8" /><path
       style="fill:#3f6d83"
       d="m 30,24 c -2.986,0 -5.448,2.159 -5.918,5.008 A 12,12 0 0 0 32,32 12,12 0 0 0 39.918,29.008 C 39.448,26.159 36.986,24 34,24 Z"
       id="path9" /><g
       transform="translate(1,1)"
       id="g10"><circle
         style="opacity:0.2"
         cx="48"
         cy="47"
         r="15"
         id="circle9" /><circle
         style="fill:#62a0ea"
         cx="48"
         cy="46"
         r="15"
         id="circle10" /><path
         style="fill:#ffffff"
         d="m 46,38 -0.18,2.11 a 6.29,6.29 0 0 0 -1.83,1.06 l -1.92,-0.9 -2,3.46 1.74,1.21 a 6.29,6.29 0 0 0 -0.1,1.06 6.29,6.29 0 0 0 0.1,1.07 l -1.74,1.2 2,3.46 1.91,-0.9 a 6.29,6.29 0 0 0 1.84,1.06 L 46,54 h 4 l 0.18,-2.11 a 6.29,6.29 0 0 0 1.83,-1.06 l 1.92,0.9 2,-3.46 -1.74,-1.21 a 6.29,6.29 0 0 0 0.1,-1.06 6.29,6.29 0 0 0 -0.1,-1.06 l 1.74,-1.21 -2,-3.46 -1.91,0.9 A 6.29,6.29 0 0 0 50.18,40.11 L 50,38 Z m 2,5.72 A 2.29,2.29 0 0 1 50.29,46 2.29,2.29 0 0 1 48,48.29 2.29,2.29 0 0 1 45.71,46 2.29,2.29 0 0 1 48,43.72 Z"
         id="path10" /></g></g></svg>

<svg xmlns="http://www.w3.org/2000/svg" width="64" height="64" version="1.1">
 <rect style="opacity:0.2" width="56" height="52" x="4" y="7" rx="2.8" ry="2.8"/>
 <rect style="fill:#5e5c64" width="56" height="52" x="4" y="6" rx="2.8" ry="2.8"/>
 <circle style="opacity:0.1" cx="32" cy="23" r="12"/>
 <circle style="fill:#c0bfbc" cx="32" cy="22" r="12"/>
 <circle style="opacity:0.2" cx="32" cy="19" r="4"/>
 <circle style="fill:#3f6d83" cx="32" cy="18" r="4"/>
 <rect style="opacity:0.1" width="28" height="6" x="18" y="41" rx="1.6" ry="1.6"/>
 <rect style="fill:#c0bfbc" width="28" height="6" x="18" y="40" rx="1.6" ry="1.6"/>
 <path style="fill:#ffffff;opacity:0.1" d="M 6.8008 6 C 5.2496 6 4 7.2496 4 8.8008 L 4 9.8008 C 4 8.2496 5.2496 7 6.8008 7 L 57.199 7 C 58.75 7 60 8.2496 60 9.8008 L 60 8.8008 C 60 7.2496 58.75 6 57.199 6 L 6.8008 6 z"/>
 <path style="opacity:0.2" d="M 19.6 40 C 18.713 40 18 40.713 18 41.6 L 18 42.6 C 18 41.713 18.713 41 19.6 41 L 44.4 41 C 45.287 41 46 41.713 46 42.6 L 46 41.6 C 46 40.713 45.287 40 44.4 40 L 19.6 40 z"/>
 <path style="opacity:0.2" d="M 30,25 C 27.014,25 24.552,27.159 24.082,30.008 A 12,12 0 0 0 32,33 12,12 0 0 0 39.918,30.008 C 39.448,27.159 36.986,25 34,25 Z"/>
 <path style="fill:#3f6d83" d="M 30,24 C 27.014,24 24.552,26.159 24.082,29.008 A 12,12 0 0 0 32,32 12,12 0 0 0 39.918,29.008 C 39.448,26.159 36.986,24 34,24 Z"/>
 <g transform="translate(1,1)">
  <circle style="opacity:0.2" cx="48" cy="47" r="15"/>
  <circle style="fill:#62a0ea" cx="48" cy="46" r="15"/>
  <path style="fill:#ffffff" d="M 46,38 45.82,40.11 A 6.29,6.29 0 0 0 43.99,41.17 L 42.07,40.27 40.07,43.73 41.81,44.94 A 6.29,6.29 0 0 0 41.71,46 6.29,6.29 0 0 0 41.81,47.07 L 40.07,48.27 42.07,51.73 43.98,50.83 A 6.29,6.29 0 0 0 45.82,51.89 L 46,54 H 50 L 50.18,51.89 A 6.29,6.29 0 0 0 52.01,50.83 L 53.93,51.73 55.93,48.27 54.19,47.06 A 6.29,6.29 0 0 0 54.29,46 6.29,6.29 0 0 0 54.19,44.94 L 55.93,43.73 53.93,40.27 52.02,41.17 A 6.29,6.29 0 0 0 50.18,40.11 L 50,38 Z M 48,43.72 A 2.29,2.29 0 0 1 50.29,46 2.29,2.29 0 0 1 48,48.29 2.29,2.29 0 0 1 45.71,46 2.29,2.29 0 0 1 48,43.72 Z"/>
 </g>
</svg>
